public/icons/ufo_icon.svg

<svg width="135" height="135" viewBox="0 0 135 135" fill="none" xmlns="http://www.w3.org/2000/svg">
<g clip-path="url(#clip0_378_9889)">
<path d="M122.922 31.6731C116.183 28.2593 106.91 25.5474 96.0359 23.8019C93.5774 10.2832 81.7174 0 67.5 0C53.2825 0 41.4226 10.2832 38.9644 23.8019C28.0924 25.5469 18.8204 28.2582 12.0825 31.6709C2.09617 36.7284 0.000244141 42.193 0.000244141 45.8868C0.000244141 52.987 7.19321 59.1366 20.8016 63.671C24.8764 65.0286 29.3852 66.1864 34.218 67.1322C37.6041 72.4568 42.2442 76.9249 47.7019 80.1019C53.6891 83.5872 60.5354 85.4294 67.5003 85.4294C74.4651 85.4294 81.3114 83.5872 87.2988 80.1019C92.7563 76.9249 97.3964 72.4568 100.783 67.1322C105.616 66.1864 110.124 65.0286 114.199 63.671C127.807 59.1366 135.001 52.9867 135.001 45.8868C134.999 42.1938 132.904 36.73 122.922 31.6731ZM43.7692 29.0036C43.7695 15.9189 54.415 5.27344 67.5 5.27344C80.585 5.27344 91.2305 15.9189 91.2305 29.0036V38.2962C91.2305 39.3103 90.5462 40.2023 89.5667 40.4655C75.1304 44.342 59.8696 44.3422 45.4333 40.4655C44.4537 40.2023 43.7695 39.3103 43.7695 38.2962V29.0036H43.7692ZM67.5 80.1557C57.5775 80.1557 48.161 75.7603 41.7326 68.3939C49.7857 69.5356 58.5093 70.1362 67.5 70.1362C76.4909 70.1362 85.2145 69.5358 93.2673 68.3939C86.8385 75.7603 77.4222 80.1557 67.5 80.1557ZM112.531 58.6678C108.407 60.042 103.809 61.2038 98.858 62.1367C98.7277 62.1511 98.5988 62.1736 98.4725 62.2073C89.1224 63.9404 78.5336 64.863 67.5 64.863C56.4658 64.863 45.8763 63.9404 36.5264 62.2073C36.4012 62.1741 36.2733 62.1519 36.1444 62.1374C31.1921 61.2043 26.5934 60.0426 22.4685 58.668C11.7017 55.0805 5.27368 50.3025 5.27368 45.8868C5.27368 40.4705 15.6953 33.085 38.4961 29.2235V38.2962C38.4961 41.6915 40.7863 44.6779 44.0654 45.5583C51.7308 47.6168 59.6157 48.6459 67.4997 48.6459C75.384 48.6459 83.2689 47.6168 90.9341 45.5583C94.2134 44.6776 96.5034 41.6913 96.5034 38.2962V29.2235C119.305 33.085 129.726 40.4707 129.726 45.8868C129.726 50.3023 123.298 55.0803 112.531 58.6678Z" fill="#A5A4B1"/>
<path d="M69.3639 55.3526C68.8737 54.8622 68.1932 54.5801 67.5 54.5801C66.8065 54.5801 66.1263 54.8622 65.6358 55.3526C65.1454 55.8431 64.8633 56.5233 64.8633 57.2168C64.8633 57.9103 65.1451 58.5905 65.6358 59.081C66.1265 59.5714 66.8065 59.8535 67.5 59.8535C68.1935 59.8535 68.8737 59.5714 69.3639 59.081C69.8543 58.5905 70.1367 57.9103 70.1367 57.2168C70.1367 56.5233 69.8546 55.8431 69.3639 55.3526Z" fill="#A5A4B1"/>
<path d="M21.4209 41.0987C20.9302 40.6083 20.25 40.3262 19.5568 40.3262C18.8607 40.3262 18.183 40.6083 17.6926 41.0987C17.2024 41.5892 16.92 42.2668 16.92 42.9629C16.92 43.6563 17.2022 44.3366 17.6926 44.8271C18.183 45.3175 18.8609 45.5996 19.5568 45.5996C20.2502 45.5996 20.9279 45.3175 21.4209 44.8271C21.9111 44.3366 22.1935 43.6563 22.1935 42.9629C22.1935 42.2668 21.9114 41.5892 21.4209 41.0987Z" fill="#A5A4B1"/>
<path d="M117.307 41.0961C116.817 40.6057 116.139 40.3262 115.443 40.3262C114.75 40.3262 114.07 40.6057 113.579 41.0961C113.089 41.5892 112.807 42.2668 112.807 42.9629C112.807 43.6563 113.088 44.3366 113.579 44.8271C114.07 45.3175 114.75 45.5996 115.443 45.5996C116.139 45.5996 116.817 45.3175 117.307 44.8271C117.798 44.3366 118.08 43.6563 118.08 42.9629C118.08 42.2668 117.798 41.5892 117.307 41.0961Z" fill="#A5A4B1"/>
<path d="M97.7534 52.5492C97.2604 52.0588 96.5825 51.7793 95.8893 51.7793C95.1929 51.7793 94.5155 52.0588 94.0251 52.5492C93.5321 53.0423 93.2526 53.7199 93.2526 54.4134C93.2526 55.1095 93.5321 55.7897 94.0251 56.2802C94.5155 56.7706 95.1932 57.0527 95.8893 57.0527C96.5827 57.0527 97.263 56.7706 97.7534 56.2802C98.2436 55.7871 98.526 55.1095 98.526 54.4134C98.526 53.7226 98.2439 53.0423 97.7534 52.5492Z" fill="#A5A4B1"/>
<path d="M40.9744 52.5499C40.4842 52.0595 39.8063 51.7773 39.1105 51.7773C38.417 51.7773 37.7367 52.0595 37.2463 52.5499C36.7559 53.043 36.4738 53.7206 36.4738 54.4141C36.4738 55.1102 36.7556 55.7904 37.2463 56.2782C37.7367 56.7713 38.417 57.0534 39.1105 57.0534C39.8066 57.0534 40.4842 56.7713 40.9744 56.2782C41.4674 55.7878 41.7472 55.1102 41.7472 54.4141C41.7472 53.7232 41.4674 53.043 40.9744 52.5499Z" fill="#A5A4B1"/>
<path d="M51.7677 26.3096C50.3115 26.3096 49.131 27.499 49.131 28.9553L49.1307 29.0038C49.1307 30.46 50.3112 31.6318 51.7675 31.6318C53.2237 31.6318 54.4042 30.4424 54.4042 28.9861L54.4044 28.9376C54.4044 27.4813 53.2237 26.3096 51.7677 26.3096Z" fill="#A5A4B1"/>
<path d="M67.5 10.6348C61.6082 10.6348 56.0329 13.4922 52.5859 18.2786C51.7348 19.4604 52.0024 21.1081 53.1844 21.9592C53.6506 22.2949 54.1893 22.4565 54.723 22.4565C55.5419 22.4565 56.3496 22.0758 56.8648 21.3604C59.3235 17.9464 63.2994 15.9082 67.5 15.9082C68.956 15.9082 70.1367 14.7277 70.1367 13.2715C70.1367 11.8152 68.956 10.6348 67.5 10.6348Z" fill="#A5A4B1"/>
<path d="M42.0536 78.9462C40.6888 78.4371 39.1703 79.1319 38.6622 80.4961L19.6779 131.442C19.1692 132.806 19.8632 134.325 21.2277 134.833C21.5315 134.946 21.8426 135 22.1485 135C23.2179 135 24.2241 134.344 24.6193 133.283L43.6037 82.3376C44.1118 80.9731 43.4181 79.4546 42.0536 78.9462Z" fill="#A5A4B1"/>
<path d="M115.322 131.442L96.3376 80.4962C95.8292 79.1317 94.3113 78.437 92.9462 78.9464C91.5817 79.4547 90.8877 80.9732 91.3964 82.3377L110.381 133.283C110.776 134.344 111.782 135 112.852 135C113.157 135 113.469 134.947 113.772 134.833C115.137 134.325 115.831 132.806 115.322 131.442Z" fill="#A5A4B1"/>
<path d="M67.5 102.282C66.044 102.282 64.8633 103.463 64.8633 104.919V125.244C64.8633 126.7 66.044 127.881 67.5 127.881C68.956 127.881 70.1367 126.7 70.1367 125.244V104.919C70.1367 103.463 68.956 102.282 67.5 102.282Z" fill="#A5A4B1"/>
<path d="M69.3639 92.2657C68.8737 91.775 68.1932 91.4932 67.5 91.4932C66.8065 91.4932 66.1263 91.775 65.6358 92.2657C65.1454 92.7564 64.8633 93.4364 64.8633 94.1299C64.8633 94.8233 65.1451 95.5036 65.6358 95.9938C66.1263 96.4842 66.8065 96.7666 67.5 96.7666C68.1935 96.7666 68.8737 96.4845 69.3639 95.9938C69.8543 95.5036 70.1367 94.8233 70.1367 94.1299C70.1367 93.4364 69.8546 92.7562 69.3639 92.2657Z" fill="#A5A4B1"/>
</g>
<defs>
<clipPath id="clip0_378_9889">
<rect width="135" height="135" fill="white"/>
</clipPath>
</defs>
</svg>

<svg width="135" height="135" fill="none" xmlns="http://www.w3.org/2000/svg"><g clip-path="url(#a)" fill="#A5A4B1"><path d="M122.922 31.673c-6.739-3.414-16.012-6.126-26.886-7.871C93.577 10.283 81.717 0 67.5 0 53.282 0 41.423 10.283 38.964 23.802c-10.872 1.745-20.144 4.456-26.881 7.869C2.095 36.728 0 42.193 0 45.887c0 7.1 7.193 13.25 20.802 17.784 4.074 1.358 8.583 2.515 13.416 3.461a39.661 39.661 0 0 0 13.484 12.97A39.39 39.39 0 0 0 67.5 85.429a39.39 39.39 0 0 0 19.8-5.327 39.669 39.669 0 0 0 13.484-12.97c4.833-.946 9.341-2.103 13.416-3.461 13.608-4.534 20.802-10.684 20.802-17.784-.002-3.693-2.097-9.157-12.079-14.214Zm-79.153-2.67c0-13.084 10.646-23.73 23.731-23.73s23.73 10.646 23.73 23.73v9.293a2.25 2.25 0 0 1-1.663 2.17 85.194 85.194 0 0 1-44.134 0 2.25 2.25 0 0 1-1.663-2.17v-9.292ZM67.5 80.157c-9.922 0-19.339-4.396-25.767-11.762 8.053 1.142 16.776 1.742 25.767 1.742 8.99 0 17.715-.6 25.767-1.742C86.84 75.76 77.422 80.156 67.5 80.156Zm45.031-21.488c-4.124 1.374-8.722 2.536-13.673 3.469-.13.014-.26.037-.386.07-9.35 1.733-19.938 2.656-30.972 2.656-11.034 0-21.624-.923-30.974-2.656a2.641 2.641 0 0 0-.382-.07c-4.952-.933-9.55-2.094-13.675-3.469-10.767-3.587-17.195-8.365-17.195-12.781 0-5.416 10.421-12.802 33.222-16.663v9.072a7.53 7.53 0 0 0 5.57 7.262A90.38 90.38 0 0 0 67.5 48.646c7.884 0 15.769-1.03 23.434-3.088a7.53 7.53 0 0 0 5.57-7.262v-9.072c22.801 3.861 33.222 11.247 33.222 16.663 0 4.415-6.428 9.193-17.195 12.78Z"/><path d="M69.364 55.353a2.656 2.656 0 0 0-1.864-.773c-.694 0-1.374.282-1.864.773-.49.49-.773 1.17-.773 1.864 0 .693.282 1.373.773 1.864.49.49 1.17.772 1.864.772.694 0 1.374-.282 1.864-.772.49-.49.773-1.17.773-1.864 0-.694-.282-1.374-.773-1.864ZM21.42 41.099a2.658 2.658 0 0 0-1.863-.773c-.696 0-1.374.282-1.864.773a2.653 2.653 0 0 0-.773 1.864c0 .693.282 1.374.773 1.864.49.49 1.168.773 1.864.773.693 0 1.37-.282 1.864-.773.49-.49.773-1.17.773-1.864 0-.696-.283-1.374-.773-1.864Zm95.887-.003a2.649 2.649 0 0 0-1.864-.77c-.693 0-1.373.28-1.864.77a2.664 2.664 0 0 0-.772 1.867c0 .693.281 1.374.772 1.864s1.171.773 1.864.773c.696 0 1.374-.282 1.864-.773.491-.49.773-1.17.773-1.864a2.66 2.66 0 0 0-.773-1.867ZM97.753 52.55a2.66 2.66 0 0 0-1.864-.77 2.65 2.65 0 0 0-1.864.77 2.65 2.65 0 0 0-.772 1.863c0 .697.28 1.377.772 1.867.49.49 1.168.773 1.864.773.694 0 1.374-.282 1.864-.773.49-.493.773-1.17.773-1.867 0-.69-.282-1.37-.773-1.864Zm-56.779 0a2.652 2.652 0 0 0-1.863-.773c-.694 0-1.374.282-1.865.773a2.661 2.661 0 0 0-.772 1.864 2.646 2.646 0 0 0 2.637 2.64 2.642 2.642 0 0 0 2.636-2.64c0-.69-.28-1.371-.773-1.864Zm10.794-26.24a2.644 2.644 0 0 0-2.637 2.645v.049a2.63 2.63 0 0 0 2.636 2.628 2.644 2.644 0 0 0 2.637-2.646v-.048a2.63 2.63 0 0 0-2.636-2.628ZM67.5 10.635a18.427 18.427 0 0 0-14.914 7.644 2.636 2.636 0 1 0 4.279 3.081A13.141 13.141 0 0 1 67.5 15.908a2.637 2.637 0 0 0 0-5.273ZM42.054 78.946a2.636 2.636 0 0 0-3.392 1.55l-18.984 50.946a2.636 2.636 0 1 0 4.941 1.841l18.985-50.945a2.637 2.637 0 0 0-1.55-3.392Zm73.268 52.496L96.338 80.496a2.636 2.636 0 1 0-4.942 1.842l18.985 50.945a2.637 2.637 0 1 0 4.941-1.841ZM67.5 102.282a2.637 2.637 0 0 0-2.637 2.637v20.325a2.637 2.637 0 0 0 5.274 0v-20.325a2.637 2.637 0 0 0-2.637-2.637Zm1.864-10.016a2.655 2.655 0 0 0-1.864-.773c-.694 0-1.374.282-1.864.773-.49.49-.773 1.17-.773 1.864 0 .693.282 1.374.773 1.864.49.49 1.17.773 1.864.773.694 0 1.374-.282 1.864-.773.49-.49.773-1.17.773-1.864 0-.694-.282-1.374-.773-1.864Z"/></g><defs><clipPath id="a"><path fill="#fff" d="M0 0h135v135H0z"/></clipPath></defs></svg>
